X: 9
T: DA BOANIE POLKA
S: Tom Anderson
R: polka
B: Haand me doon da fiddle, 1979
Z: 2012 John Chambers <jc:trillian.mit.edu>
N: A variant of the Jenny Lind Polka.
N: Fixed the missing initial repeat in the 2nd section.
M: C
L: 1/8
K: D
AG |:\
F2A2 G2B2 | A2f2 fafd | B2e2 efec |1 A2d2 d2AG :|[2 A2d2 d2fe ||
|: d2B2 BcdB | A2F2 F3A | G2E2 EFGE |1 F2D2 D2fe :|2 F2D2 D2-D2 |]
"ex." vAu(G |F2) vAu(FG2) vBu(G | A2) y8 y8 y8 y8 y8 y8 y8 y8 y8
%%begintext align
I learned dis een frae da late Jean Pole o' Waas.  Sh\"u wis a body
aboot 80 years auld whin sh\"u played him ta me.  Whin sh\"u played him,
which sh\"u always did sittin doon, sh\"u kinda danced da t"un wi her feet
so dat du could nearly see da steps o' da polka.  Dere is different
wyes o' him played in England whaur he's \"osed fir a polka as weel.

Dis is a fine aisy wye o' him.  Whin du's played fir a peerie while,
try da first bar o' him da wye dat we're written him at da end o'
da t\"un.
%%endtext

%%sep 2 1 500
%%sep 1 1 500

